X:1
T:Title
%%score { ( 1 4 ) | ( 2 3 ) }
L:1/8
Q:1/4=100
M:4/4
K:Bb
V:1 treble nm="Grand Piano"
V:4 treble 
V:2 bass 
V:3 bass 
V:1
 [B,DF]3 [DFB] A>G A>c | [DB]4 [DF]2 [FB][FA] | [FA]2 G2 B3 G | [DF]6 z2 | [DF]3 [DFB] A>B d>c | %5
w: W.~H.~Doane * * * * *|||||
 B4 G2 G>G | F2 B2 A2 Bc |[M:3/4] [DFB]6 |[M:1/4] B>c |[M:4/4] d6 z2 | F6 z2 | c2 d2 e3 d | %12
w: |||||||
 c6 [DB]>[Ec] | [Fd]6 z2 |[M:9/8] [GB]6- [GB] z z |[M:4/4] F2 B2 A2 Bc | [DFB]6 z2 |] %17
w: |||||
V:2
 B,,3 B,, [F,CE]>[F,B,E] [F,CE]>[F,A,E] | [B,,B,]4 [B,,B,]2 [D,B,][D,B,] | %2
 [E,B,]2 [E,B,E]2 [E,G,E]3 [E,B,E] | [B,,B,]6 z2 | [B,,B,]3 B,, [F,CE]>[F,B,D] [F,A,F]>[F,A,E] | %5
 [G,B,D]4 [E,B,E]2 [E,B,E]>[E,B,E] | z4 z2 .D2 |[M:3/4] B,,6 |[M:1/4][K:treble] D>E | %9
[M:4/4] F6[K:bass][K:treble] z2 | D6[K:bass] z2 | [F,A,F]2 [F,B,F]2 [F,CF]3 [F,B,F] | %12
 [F,A,F]6 [B,,B,]>[B,,B,] | [B,,B,]2 B,,>B,, B,,2 E,>E, | %14
[M:9/8] E,2 E,- E,/E,/ E,2- E,[E,B,E]>[E,B,E] |[M:4/4] z4 z2 .D2 | B,,6 z2 |] %17
V:3
 x8 | x8 | x8 | x8 | x8 | x8 | [F,B,D]2 [F,DF]2 [F,CF]2 [F,F]-[F,EF] |[M:3/4] x6 | %8
[M:1/4][K:treble] x2 |[M:4/4] z2[K:bass] B,,>B,, B,,2[K:treble] G>E | %10
 z2[K:bass] B,,>B,, B,,2 [F,CF]>[F,DF] | x8 | x8 | x8 |[M:9/8] x9 | %15
[M:4/4] [F,B,D]2 [F,DF]2 [F,CF]2 [F,F]-[F,EF] | x8 |] %17
V:4
 x8 | x8 | x8 | x8 | x8 | x8 | x8 |[M:3/4] x6 |[M:1/4] x2 |[M:4/4] z2 B,>B, B,2 B>G | %10
 z2 B,>B, B,2 A>B | x8 | x8 | z2 B,>B, B,2 [B,GB]>[B,EG] |[M:9/8] B,2 B,- B,/B,/ B,2- B,G>G | %15
[M:4/4] x8 | x8 |] %17

